X:1
T:Title
%%score { ( 1 3 4 ) | 2 }
L:1/8
M:4/4
K:F
V:1 treble nm="Grand Piano"
V:3 treble 
V:4 treble 
V:2 bass 
V:1
 z4 z2 z[Q:1/4=94] C | A_A=Ad cAFG | E2 B>B B2 CC | BABd GFED |[M:7/8] C2 c>c c2 z |[M:1/8] A | %6
[M:4/4] cc=Bc dc_BA | GGAA B2 z =B | cccc cAFG | ABAG F4 | c2 z2 A2 z2 | EEEB BE .E2 | %12
 d2 z2 B2 z2 |[M:7/8] FFF cc FF |[M:1/8] A |[M:4/4] cc=Bc dc_BA | D-[D-G][D-A][DA] B2 z =B | %17
 cccc cAFG |[M:8/4] ABAG F4 z8 |] %19
V:2
 z8 | [F,,F,]2 [F,A,C]2 [A,,A,]2 [F,C]2 | [G,,G,]2 [G,B,C]2 C,2 [G,B,]2 | %3
 [G,,G,]2 [E,B,C]2 [E,,E,]2 [G,B,C]2 |[M:7/8] C,2 [E,G,B,C]2 [F,A,C]2 z |[M:1/8] z | %6
[M:4/4] [F,,F,]2 [F,A,C]2 [F,,F,]2 [F,A,C]2 | [B,,B,]2 [A,,^F,]2 [G,,G,]2 G,,2 | %8
 [E,,E,]2 [G,B,C]2 [F,,F,]2 [A,C][B,D] | C2 [C,B,]2 [F,A,]4 | %10
 F,[K:treble][A,C] .[A,CF]2[K:bass] F,[A,C] .[A,C]2 | [F,,G,][B,C] .[B,C]2 C,[B,C] .[B,C]2 | %12
 [E,,E,][B,C] .[B,CE]2 C,[B,C] .[B,C]2 |[M:7/8] F,[A,C][A,C] z [F,,F,] [A,C][A,C] |[M:1/8] z | %15
[M:4/4] [F,,F,]2 [F,A,C]2 [F,,F,]2 [F,A,C]2 | [B,,B,]2 [A,,^F,]2 [G,,G,]2 G,,2 | %17
 [E,,E,]2 [G,B,C]2 [F,,F,]2 [A,C][B,D] |[M:8/4] C2 [C,B,]2 [F,A,]4 z8 |] %19
V:3
 x8 | x8 | x8 | x8 |[M:7/8] x7 |[M:1/8] x |[M:4/4] x8 | D4 D4 | x8 | x8 | z F c>c z FFF | x8 | %12
 z E d>d z EEE |[M:7/8] x7 |[M:1/8] x |[M:4/4] x8 | .G2 z2 D4 | x8 |[M:8/4] x16 |] %19
V:4
 x8 | x8 | x8 | x8 |[M:7/8] x7 |[M:1/8] x |[M:4/4] x8 | z4 z2 F,2 | x8 | x8 | x8 | x8 | x8 | %13
[M:7/8] x7 |[M:1/8] x |[M:4/4] x8 | z4 z2 F,2 | x8 |[M:8/4] x16 |] %19

